packages/icons/src/svg/tds-colored.svg

<svg xmlns="http://www.w3.org/2000/svg" viewBox="0 0 16 16">
  <g fill="none">
  <g class="ti-tds-positive-bg" fill="#60769e" fill-rule="nonzero">
    <path d="M15.9998,8 C15.9998,12.418 12.4178,16 7.9998,16 C3.5818,16 -0.0002,12.418 -0.0002,8 C-0.0002,3.582 3.5818,0 7.9998,0 C12.4178,0 15.9998,3.582 15.9998,8"/>
  </g>
  <g class="ti-tds-positive-logo" fill="#FFF" fill-rule="nonzero">  
    <path d="M14.4436,7.1504 C14.1876,7.1254 14.0696,7.1474 13.9056,7.2464 C13.6426,7.3904 13.4646,7.6704 13.4646,7.9904 C13.4646,8.3084 13.6416,8.5864 13.9016,8.7314 C13.5606,11.4144 11.4226,13.5434 8.7326,13.8814 C8.5846,13.6304 8.3116,13.4624 7.9986,13.4624 C7.6846,13.4624 7.4106,13.6324 7.2626,13.8854 C4.5636,13.5604 2.4146,11.4324 2.0646,8.7484 C2.3416,8.6074 2.5326,8.3214 2.5326,7.9904 C2.5326,7.6574 2.3406,7.3704 2.0616,7.2304 C2.0596,7.2294 2.0586,7.2294 2.0566,7.2284 C2.3466,5.2434 3.6096,3.4794 5.5166,2.5904 C8.3786,1.2554 11.8276,2.3574 13.3896,5.0974 L12.6586,5.4384 L14.1966,6.1594 L14.6346,4.5164 L13.8986,4.8604 C12.2026,1.8384 8.4246,0.6174 5.2796,2.0844 C3.1946,3.0564 1.8146,4.9874 1.5016,7.1604 C1.1176,7.2424 0.8286,7.5824 0.8286,7.9904 C0.8286,8.4064 1.1286,8.7524 1.5246,8.8254 C1.9056,11.7424 4.2266,14.0494 7.1546,14.4204 C7.2086,14.8374 7.5656,15.1614 7.9986,15.1614 C8.4336,15.1614 8.7926,14.8364 8.8436,14.4164 C11.7546,14.0324 14.0576,11.7334 14.4396,8.8304 C14.8516,8.7704 15.1696,8.4184 15.1696,7.9904 C15.1696,7.5634 14.8536,7.2124 14.4436,7.1504"/>
    <path d="M6.45,8.1513 L6.722,8.2753 L6.892,8.7813 L7.469,8.6163 L7.508,8.6333 L7.759,9.1823 L6.911,11.0393 L6.434,10.1333 L5.439,10.3663 L6.45,8.1513 Z M7.997,5.3473 C8.75,5.3473 9.361,5.9573 9.361,6.7103 C9.361,7.4633 8.75,8.0733 7.997,8.0733 C7.244,8.0733 6.634,7.4633 6.634,6.7103 C6.634,5.9573 7.244,5.3473 7.997,5.3473 L7.997,5.3473 Z M10.556,10.3663 L9.56,10.1333 L9.083,11.0393 L8.236,9.1823 L8.486,8.6333 L8.526,8.6163 L9.102,8.7813 L9.273,8.2753 L9.545,8.1513 L10.556,10.3663 Z M4.676,10.9913 L6.207,10.6323 L6.939,12.0243 L7.997,9.7053 L9.056,12.0243 L9.788,10.6323 L11.319,10.9913 L9.949,7.9903 L9.85,7.3793 L10.358,6.9633 L9.965,6.4363 L10.221,5.8323 L9.628,5.5493 L9.575,4.8953 L8.918,4.9213 L8.566,4.3663 L7.997,4.6943 L7.428,4.3663 L7.076,4.9213 L6.42,4.8953 L6.366,5.5493 L5.774,5.8323 L6.03,6.4363 L5.637,6.9633 L6.144,7.3793 L6.046,7.9903 L4.676,10.9913 Z"/>
  </g>
  </g>
</svg>

<svg xmlns="http://www.w3.org/2000/svg" viewBox="0 0 16 16">
	<g fill="none">
		<path d="M16 8A8 8 0 1 1 0 8a8 8 0 0 1 16 0" class="ti-tds-positive-bg" fill="#60769e"/>
		<g class="ti-tds-positive-logo" fill="#FFF">
			<path d="M14.444 7.15c-.256-.025-.374-.003-.538.096a.848.848 0 0 0-.004 1.485 5.97 5.97 0 0 1-5.17 5.15.85.85 0 0 0-1.47.004 5.972 5.972 0 0 1-5.197-5.137.85.85 0 0 0-.003-1.518c-.002 0-.003 0-.005-.002a6.085 6.085 0 0 1 3.46-4.638c2.862-1.335 6.31-.233 7.873 2.507l-.731.341 1.538.721.438-1.643-.736.344C12.203 1.838 8.425.617 5.279 2.084A6.641 6.641 0 0 0 1.503 7.16a.85.85 0 0 0 .023 1.665 6.507 6.507 0 0 0 5.63 5.595.852.852 0 0 0 1.689-.004A6.508 6.508 0 0 0 14.44 8.83a.85.85 0 0 0 .73-.84.852.852 0 0 0-.726-.84"/>
			<path d="M6.45 8.151l.272.124.17.506.577-.165.039.017.251.55-.848 1.856-.477-.906-.995.233L6.45 8.151zm1.547-2.804a1.364 1.364 0 1 1 0 2.727 1.364 1.364 0 0 1 0-2.727zm2.559 5.02l-.996-.234-.477.906-.847-1.857.25-.549.04-.017.576.165.171-.506.272-.124 1.011 2.215zm-5.88.624l1.531-.359.732 1.392 1.058-2.319 1.059 2.32.732-1.393 1.531.36-1.37-3.002-.099-.61.508-.417-.393-.527.256-.604-.593-.283-.053-.654-.657.026-.352-.555-.569.328-.569-.328-.352.555-.656-.026-.054.654-.592.283.256.604-.393.527.507.416-.098.611-1.37 3.001z"/>
		</g>
	</g>
</svg>
